fs/mic_off_24_regular.svg

<svg viewBox="0 0 24 24" fill="none" xmlns="http://www.w3.org/2000/svg" height="1em" width="1em">
  <path d="M3.28034 2.21968C2.98745 1.92678 2.51257 1.92677 2.21968 2.21966C1.92678 2.51255 1.92677 2.98743 2.21966 3.28032L8 9.06078V12C8 14.2091 9.79086 16 12 16C12.8335 16 13.6074 15.7451 14.2481 15.309L15.394 16.4549C14.5176 17.1112 13.4292 17.5 12.25 17.5H11.75L11.5336 17.4956C8.73445 17.3821 6.5 15.077 6.5 12.25V11.75L6.49315 11.6482C6.44349 11.2822 6.1297 11 5.75 11C5.33579 11 5 11.3358 5 11.75V12.25L5.00406 12.4863C5.12283 15.938 7.83323 18.7316 11.25 18.9818L11.25 21.25L11.2568 21.3518C11.3065 21.7178 11.6203 22 12 22C12.4142 22 12.75 21.6642 12.75 21.25L12.751 18.9817C14.15 18.8791 15.4305 18.35 16.4631 17.5241L20.7194 21.7805C21.0123 22.0734 21.4872 22.0734 21.7801 21.7805C22.073 21.4876 22.073 21.0127 21.7801 20.7198L3.28034 2.21968ZM13.1562 14.2171C12.8105 14.3978 12.4172 14.5 12 14.5C10.6193 14.5 9.5 13.3807 9.5 12V10.5608L13.1562 14.2171ZM14.5 6V11.3182L15.9301 12.7483C15.976 12.5059 16 12.2558 16 12V6C16 3.79086 14.2091 2 12 2C10.1521 2 8.59692 3.25302 8.13768 4.95575L9.5 6.3181V6C9.5 4.61929 10.6193 3.5 12 3.5C13.3807 3.5 14.5 4.61929 14.5 6ZM17.1962 14.0144L18.3421 15.1604C18.7638 14.2791 19 13.2921 19 12.25V11.75L18.9932 11.6482C18.9435 11.2822 18.6297 11 18.25 11C17.8358 11 17.5 11.3358 17.5 11.75V12.25L17.4956 12.4664C17.4737 13.0075 17.3698 13.5276 17.1962 14.0144Z" fill="#212121"/>
</svg>

<svg viewBox="0 0 24 24" fill="none" xmlns="http://www.w3.org/2000/svg" height="1em" width="1em">
  <path d="M3.28 2.22a.75.75 0 1 0-1.06 1.06L8 9.06V12a4 4 0 0 0 6.248 3.309l1.146 1.146A5.227 5.227 0 0 1 12.25 17.5h-.5l-.216-.004A5.25 5.25 0 0 1 6.5 12.25v-.5l-.007-.102A.75.75 0 0 0 5 11.75v.5l.004.236a6.75 6.75 0 0 0 6.246 6.496v2.268l.007.102a.75.75 0 0 0 1.493-.102l.001-2.268a6.718 6.718 0 0 0 3.712-1.458l4.256 4.256a.75.75 0 0 0 1.061-1.06L3.28 2.22Zm9.876 11.997A2.5 2.5 0 0 1 9.5 12v-1.44l3.656 3.657ZM14.5 6v5.318l1.43 1.43c.046-.242.07-.492.07-.748V6a4 4 0 0 0-7.862-1.044L9.5 6.318V6a2.5 2.5 0 0 1 5 0Zm2.696 8.014 1.146 1.146A6.725 6.725 0 0 0 19 12.25v-.5l-.007-.102a.75.75 0 0 0-1.493.102v.5l-.004.216a5.233 5.233 0 0 1-.3 1.548Z" fill="#212121"/>
</svg>
